Newaita-dark/apps/22/accessories-character-map.svg

<?xml version="1.0" encoding="UTF-8"?>
<svg xmlns="http://www.w3.org/2000/svg" xmlns:xlink="http://www.w3.org/1999/xlink" width="22px" height="22px" viewBox="0 0 22 22" version="1.1">
<defs>
<linearGradient id="linear0" gradientUnits="userSpaceOnUse" x1="254" y1="233.5" x2="254" y2="254.666672" gradientTransform="matrix(0.0429729,0,0,0.0429729,-0.00000262285,9.239165)">
<stop offset="0" style="stop-color:rgb(0%,0%,0%);stop-opacity:0.27451;"/>
<stop offset="1" style="stop-color:rgb(0%,0%,0%);stop-opacity:0;"/>
</linearGradient>
<radialGradient id="radial0" gradientUnits="userSpaceOnUse" cx="450.908936" cy="189.579361" fx="450.908936" fy="189.579361" r="21.166656" gradientTransform="matrix(0.000000119742,-0.0537161,-0.0966889,-0.0000000698078,35.839821,43.721791)">
<stop offset="0" style="stop-color:rgb(0%,0%,0%);stop-opacity:0.313726;"/>
<stop offset="0.222222" style="stop-color:rgb(0%,0%,0%);stop-opacity:0.27451;"/>
<stop offset="1" style="stop-color:rgb(0%,0%,0%);stop-opacity:0;"/>
</radialGradient>
<radialGradient id="radial1" gradientUnits="userSpaceOnUse" cx="450.908936" cy="189.579361" fx="450.908936" fy="189.579361" r="21.166656" gradientTransform="matrix(-0.000000119742,0.0537161,0.0966889,0.0000000698078,-14.009609,-5.175142)">
<stop offset="0" style="stop-color:rgb(0%,0%,0%);stop-opacity:0.313726;"/>
<stop offset="0.222222" style="stop-color:rgb(0%,0%,0%);stop-opacity:0.27451;"/>
<stop offset="1" style="stop-color:rgb(0%,0%,0%);stop-opacity:0;"/>
</radialGradient>
<radialGradient id="radial2" gradientUnits="userSpaceOnUse" cx="450.908936" cy="189.579361" fx="450.908936" fy="189.579361" r="21.166656" gradientTransform="matrix(-0.000000119742,-0.0537161,0.0966889,-0.0000000698078,-14.009609,43.721791)">
<stop offset="0" style="stop-color:rgb(0%,0%,0%);stop-opacity:0.313726;"/>
<stop offset="0.222222" style="stop-color:rgb(0%,0%,0%);stop-opacity:0.27451;"/>
<stop offset="1" style="stop-color:rgb(0%,0%,0%);stop-opacity:0;"/>
</radialGradient>
<radialGradient id="radial3" gradientUnits="userSpaceOnUse" cx="450.908936" cy="189.579361" fx="450.908936" fy="189.579361" r="21.166656" gradientTransform="matrix(0.000000119742,0.0537161,-0.0966889,0.0000000698078,35.839819,-5.175142)">
<stop offset="0" style="stop-color:rgb(0%,0%,0%);stop-opacity:0.313726;"/>
<stop offset="0.222222" style="stop-color:rgb(0%,0%,0%);stop-opacity:0.27451;"/>
<stop offset="1" style="stop-color:rgb(0%,0%,0%);stop-opacity:0;"/>
</radialGradient>
<linearGradient id="linear1" gradientUnits="userSpaceOnUse" x1="285.75" y1="233.5" x2="285.75" y2="-168.666672" gradientTransform="matrix(0.0429729,0,0,0.0429729,0,9.239163)">
<stop offset="0" style="stop-color:rgb(61.960787%,61.960787%,61.960787%);stop-opacity:1;"/>
<stop offset="1" style="stop-color:rgb(74.117649%,74.117649%,74.117649%);stop-opacity:1;"/>
</linearGradient>
<linearGradient id="linear2" gradientUnits="userSpaceOnUse" x1="254" y1="-147.5" x2="253.999985" y2="212.333328" gradientTransform="matrix(0.0429729,0,0,0.0429729,0,9.239163)">
<stop offset="0" style="stop-color:rgb(87.843138%,87.843138%,87.843138%);stop-opacity:1;"/>
<stop offset="1" style="stop-color:rgb(93.333334%,93.333334%,93.333334%);stop-opacity:1;"/>
</linearGradient>
<filter id="alpha" filterUnits="objectBoundingBox" x="0%" y="0%" width="100%" height="100%">
  <feColorMatrix type="matrix" in="SourceGraphic" values="0 0 0 0 1 0 0 0 0 1 0 0 0 0 1 0 0 0 1 0"/>
</filter>
<mask id="mask0">
  <g filter="url(#alpha)">
<rect x="0" y="0" width="22" height="22" style="fill:rgb(0%,0%,0%);fill-opacity:0.99;stroke:none;"/>
  </g>
</mask>
<linearGradient id="linear3" gradientUnits="userSpaceOnUse" x1="960" y1="1695.118164" x2="960.000061" y2="135.118118" gradientTransform="matrix(0.0113699,0,0,0.0113699,0,0)">
<stop offset="0" style="stop-color:rgb(25.882354%,25.882354%,25.882354%);stop-opacity:1;"/>
<stop offset="1" style="stop-color:rgb(38.039216%,38.039216%,38.039216%);stop-opacity:1;"/>
</linearGradient>
<clipPath id="clip1">
  <rect x="0" y="0" width="22" height="22"/>
</clipPath>
<g id="surface5" clip-path="url(#clip1)">
<path style=" stroke:none;fill-rule:nonzero;fill:url(#linear3);" d="M 10.019531 4.660156 C 9.867188 4.660156 9.71875 4.742188 9.636719 4.886719 L 9.410156 5.28125 C 9.28125 5.5 9.355469 5.777344 9.574219 5.902344 L 11.542969 7.039062 C 11.761719 7.164062 12.039062 7.089844 12.164062 6.871094 L 12.394531 6.476562 C 12.519531 6.261719 12.445312 5.984375 12.226562 5.855469 L 10.257812 4.71875 C 10.183594 4.675781 10.101562 4.65625 10.019531 4.660156 Z M 8.1875 7.902344 C 7.683594 7.902344 7.277344 8.308594 7.277344 8.8125 L 7.277344 9.722656 L 8.640625 9.722656 C 8.640625 9.46875 8.84375 9.269531 9.097656 9.269531 L 12.734375 9.269531 C 12.984375 9.269531 13.1875 9.46875 13.1875 9.722656 L 13.1875 11.542969 L 8.1875 11.542969 C 7.683594 11.542969 7.277344 11.949219 7.277344 12.453125 L 7.277344 15.636719 C 7.277344 16.140625 7.683594 16.542969 8.1875 16.542969 L 14.554688 16.542969 L 14.554688 8.8125 C 14.554688 8.308594 14.148438 7.902344 13.644531 7.902344 Z M 9.097656 12.90625 L 13.1875 12.90625 L 13.1875 15.179688 L 9.097656 15.179688 C 8.84375 15.179688 8.640625 14.976562 8.640625 14.726562 L 8.640625 13.359375 C 8.640625 13.109375 8.84375 12.90625 9.097656 12.90625 Z M 9.097656 12.90625 "/>
</g>
<mask id="mask1">
  <g filter="url(#alpha)">
<rect x="0" y="0" width="22" height="22" style="fill:rgb(0%,0%,0%);fill-opacity:0.99;stroke:none;"/>
  </g>
</mask>
<clipPath id="clip2">
  <rect x="0" y="0" width="22" height="22"/>
</clipPath>
<g id="surface8" clip-path="url(#clip2)">
<path style=" stroke:none;fill-rule:nonzero;fill:rgb(0%,0%,0%);fill-opacity:0.235294;" d="M 10.019531 4.660156 C 9.867188 4.660156 9.71875 4.742188 9.636719 4.886719 L 9.410156 5.28125 C 9.335938 5.40625 9.328125 5.554688 9.378906 5.679688 C 9.390625 5.660156 9.398438 5.640625 9.410156 5.621094 L 9.636719 5.226562 C 9.71875 5.085938 9.867188 5.003906 10.019531 5 C 10.101562 4.996094 10.183594 5.019531 10.257812 5.0625 L 12.226562 6.199219 C 12.316406 6.25 12.382812 6.332031 12.421875 6.421875 C 12.503906 6.214844 12.425781 5.972656 12.226562 5.855469 L 10.257812 4.71875 C 10.183594 4.675781 10.101562 4.65625 10.019531 4.660156 Z M 8.1875 7.902344 C 7.683594 7.902344 7.277344 8.308594 7.277344 8.8125 L 7.277344 9.152344 C 7.277344 8.648438 7.683594 8.246094 8.1875 8.246094 L 13.644531 8.246094 C 14.148438 8.246094 14.554688 8.648438 14.554688 9.152344 L 14.554688 8.8125 C 14.554688 8.308594 14.148438 7.902344 13.644531 7.902344 Z M 8.1875 11.542969 C 7.683594 11.542969 7.277344 11.949219 7.277344 12.453125 L 7.277344 12.792969 C 7.277344 12.289062 7.683594 11.882812 8.1875 11.882812 L 13.1875 11.882812 L 13.1875 11.542969 Z M 8.640625 14.726562 L 8.640625 15.066406 C 8.640625 15.320312 8.84375 15.519531 9.097656 15.519531 L 13.1875 15.519531 L 13.1875 15.179688 L 9.097656 15.179688 C 8.84375 15.179688 8.640625 14.976562 8.640625 14.726562 Z M 8.640625 14.726562 "/>
</g>
<mask id="mask2">
  <g filter="url(#alpha)">
<rect x="0" y="0" width="22" height="22" style="fill:rgb(0%,0%,0%);fill-opacity:0.99;stroke:none;"/>
  </g>
</mask>
<clipPath id="clip3">
  <rect x="0" y="0" width="22" height="22"/>
</clipPath>
<g id="surface11" clip-path="url(#clip3)">
<path style=" stroke:none;fill-rule:nonzero;fill:rgb(100%,100%,100%);fill-opacity:1;" d="M 9.410156 5.734375 C 9.28125 5.953125 9.355469 6.230469 9.574219 6.355469 L 11.542969 7.492188 C 11.761719 7.621094 12.039062 7.546875 12.164062 7.328125 L 12.394531 6.933594 C 12.476562 6.785156 12.472656 6.613281 12.394531 6.476562 L 12.164062 6.871094 C 12.039062 7.089844 11.761719 7.164062 11.542969 7.039062 L 9.574219 5.902344 C 9.503906 5.859375 9.445312 5.800781 9.410156 5.734375 Z M 9.097656 9.269531 C 8.84375 9.269531 8.640625 9.46875 8.640625 9.722656 L 7.277344 9.722656 L 7.277344 10.175781 L 8.640625 10.175781 C 8.640625 9.925781 8.84375 9.722656 9.097656 9.722656 L 12.734375 9.722656 C 12.984375 9.722656 13.1875 9.925781 13.1875 10.175781 L 13.1875 9.722656 C 13.1875 9.46875 12.984375 9.269531 12.734375 9.269531 Z M 9.097656 12.90625 C 8.84375 12.90625 8.640625 13.109375 8.640625 13.359375 L 8.640625 13.816406 C 8.640625 13.5625 8.84375 13.359375 9.097656 13.359375 L 13.1875 13.359375 L 13.1875 12.90625 Z M 7.277344 15.636719 L 7.277344 16.089844 C 7.277344 16.59375 7.683594 17 8.1875 17 L 14.554688 17 L 14.554688 16.542969 L 8.1875 16.542969 C 7.683594 16.542969 7.277344 16.140625 7.277344 15.636719 Z M 7.277344 15.636719 "/>
</g>
<mask id="mask3">
  <g filter="url(#alpha)">
<rect x="0" y="0" width="22" height="22" style="fill:rgb(0%,0%,0%);fill-opacity:0.99;stroke:none;"/>
  </g>
</mask>
<clipPath id="clip4">
  <rect x="0" y="0" width="22" height="22"/>
</clipPath>
<g id="surface14" clip-path="url(#clip4)">
<path style="fill:none;stroke-width:11.338583;stroke-linecap:round;stroke-linejoin:round;stroke:rgb(12.941177%,12.941177%,12.941177%);stroke-opacity:1;stroke-miterlimit:4;" d="M 881.233001 409.867825 C 867.834137 409.867825 854.778833 417.082598 847.56406 429.794341 L 827.637544 464.493964 C 816.300043 483.733359 822.827695 508.126163 842.06709 519.120103 L 1015.221644 619.096245 C 1034.461039 630.090185 1058.853844 623.562533 1069.847784 604.323138 L 1090.11786 569.623515 C 1101.1118 550.72768 1094.584148 526.334876 1075.344753 514.997376 L 902.190199 415.021234 C 895.662547 411.242067 888.447774 409.524264 881.233001 409.867825 Z M 720.103068 695.023143 C 675.783748 695.023143 640.053443 730.753448 640.053443 775.072768 L 640.053443 855.122393 L 759.956101 855.122393 C 759.956101 832.790953 777.821253 815.269361 800.152694 815.269361 L 1120.007635 815.269361 C 1141.995515 815.269361 1159.860667 832.790953 1159.860667 855.122393 L 1159.860667 1015.221644 L 720.103068 1015.221644 C 675.783748 1015.221644 640.053443 1050.951949 640.053443 1095.27127 L 640.053443 1375.273178 C 640.053443 1419.592499 675.783748 1454.979243 720.103068 1454.979243 L 1280.106885 1454.979243 L 1280.106885 775.072768 C 1280.106885 730.753448 1244.376581 695.023143 1200.05726 695.023143 Z M 800.152694 1135.124302 L 1159.860667 1135.124302 L 1159.860667 1335.076585 L 800.152694 1335.076585 C 777.821253 1335.076585 759.956101 1317.211433 759.956101 1295.223553 L 759.956101 1174.977334 C 759.956101 1152.989455 777.821253 1135.124302 800.152694 1135.124302 Z M 800.152694 1135.124302 " transform="matrix(0.0113699,0,0,0.0113699,0,0)"/>
</g>
</defs>
<g id="surface1">
<path style=" stroke:none;fill-rule:nonzero;fill:url(#linear0);" d="M 4.09375 19.207031 L 17.738281 19.207031 L 17.738281 20.214844 L 4.09375 20.214844 Z M 4.09375 19.207031 "/>
<path style=" stroke:none;fill-rule:nonzero;fill:url(#radial0);" d="M 17.738281 19.273438 L 19.554688 19.273438 L 19.554688 18.363281 L 17.738281 18.363281 Z M 17.738281 19.273438 "/>
<path style=" stroke:none;fill-rule:nonzero;fill:url(#radial1);" d="M 4.09375 19.273438 L 2.273438 19.273438 L 2.273438 20.183594 L 4.09375 20.183594 Z M 4.09375 19.273438 "/>
<path style=" stroke:none;fill-rule:nonzero;fill:url(#radial2);" d="M 4.09375 19.273438 L 2.273438 19.273438 L 2.273438 18.363281 L 4.09375 18.363281 Z M 4.09375 19.273438 "/>
<path style=" stroke:none;fill-rule:nonzero;fill:url(#radial3);" d="M 17.738281 19.273438 L 19.554688 19.273438 L 19.554688 20.183594 L 17.738281 20.183594 Z M 17.738281 19.273438 "/>
<path style=" stroke:none;fill-rule:nonzero;fill:url(#linear1);" d="M 3.183594 1.992188 L 18.648438 1.992188 C 19.148438 1.992188 19.554688 2.398438 19.554688 2.902344 L 19.554688 18.363281 C 19.554688 18.867188 19.148438 19.273438 18.648438 19.273438 L 3.183594 19.273438 C 2.679688 19.273438 2.273438 18.867188 2.273438 18.363281 L 2.273438 2.902344 C 2.273438 2.398438 2.679688 1.992188 3.183594 1.992188 Z M 3.183594 1.992188 "/>
<path style=" stroke:none;fill-rule:nonzero;fill:rgb(90.196079%,90.196079%,90.196079%);fill-opacity:0.392157;" d="M 3.183594 1.992188 C 2.679688 1.992188 2.273438 2.398438 2.273438 2.902344 L 2.273438 3.015625 C 2.273438 2.511719 2.679688 2.105469 3.183594 2.105469 L 18.648438 2.105469 C 19.152344 2.105469 19.554688 2.511719 19.554688 3.015625 L 19.554688 2.902344 C 19.554688 2.398438 19.152344 1.992188 18.648438 1.992188 Z M 3.183594 1.992188 "/>
<path style=" stroke:none;fill-rule:nonzero;fill:rgb(0%,0%,0%);fill-opacity:0.196078;" d="M 3.183594 19.273438 C 2.679688 19.273438 2.273438 18.867188 2.273438 18.363281 L 2.273438 18.25 C 2.273438 18.753906 2.679688 19.160156 3.183594 19.160156 L 18.648438 19.160156 C 19.152344 19.160156 19.554688 18.753906 19.554688 18.25 L 19.554688 18.363281 C 19.554688 18.867188 19.152344 19.273438 18.648438 19.273438 Z M 3.183594 19.273438 "/>
<path style="fill:none;stroke-width:3;stroke-linecap:round;stroke-linejoin:miter;stroke:rgb(12.941177%,12.941177%,12.941177%);stroke-opacity:1;stroke-miterlimit:4;" d="M 74.083834 -168.640791 L 433.958559 -168.640791 C 445.593812 -168.640791 455.047454 -159.187148 455.047454 -147.460995 L 455.047454 212.322829 C 455.047454 224.048982 445.593812 233.502625 433.958559 233.502625 L 74.083834 233.502625 C 62.357682 233.502625 52.904039 224.048982 52.904039 212.322829 L 52.904039 -147.460995 C 52.904039 -159.187148 62.357682 -168.640791 74.083834 -168.640791 Z M 74.083834 -168.640791 " transform="matrix(0.0429729,0,0,0.0429729,0,9.239163)"/>
<path style=" stroke:none;fill-rule:nonzero;fill:url(#linear2);" d="M 4.546875 3.355469 L 17.28125 3.355469 C 17.785156 3.355469 18.191406 3.734375 18.191406 4.207031 L 18.191406 17.058594 C 18.191406 17.527344 17.785156 17.910156 17.28125 17.910156 L 4.546875 17.910156 C 4.046875 17.910156 3.636719 17.527344 3.636719 17.058594 L 3.636719 4.207031 C 3.636719 3.734375 4.046875 3.355469 4.546875 3.355469 Z M 4.546875 3.355469 "/>
<use xlink:href="#surface5" mask="url(#mask0)"/>
<use xlink:href="#surface8" mask="url(#mask1)"/>
<use xlink:href="#surface11" mask="url(#mask2)"/>
<use xlink:href="#surface14" mask="url(#mask3)"/>
</g>
</svg>

<svg xmlns="http://www.w3.org/2000/svg" width="22pt" height="22pt" viewBox="0 0 22 22"><defs><linearGradient id="a" gradientUnits="userSpaceOnUse" x1="254" y1="233.5" x2="254" y2="254.667" gradientTransform="matrix(.04297 0 0 .04297 0 9.24)"><stop offset="0" stop-opacity=".275"/><stop offset="1" stop-opacity="0"/></linearGradient><radialGradient id="b" gradientUnits="userSpaceOnUse" cx="450.909" cy="189.579" fx="450.909" fy="189.579" r="21.167" gradientTransform="matrix(0 -.05372 -.09669 0 35.84 43.722)"><stop offset="0" stop-opacity=".314"/><stop offset=".222" stop-opacity=".275"/><stop offset="1" stop-opacity="0"/></radialGradient><radialGradient id="c" gradientUnits="userSpaceOnUse" cx="450.909" cy="189.579" fx="450.909" fy="189.579" r="21.167" gradientTransform="matrix(0 .05372 .09669 0 -14.01 -5.175)"><stop offset="0" stop-opacity=".314"/><stop offset=".222" stop-opacity=".275"/><stop offset="1" stop-opacity="0"/></radialGradient><radialGradient id="d" gradientUnits="userSpaceOnUse" cx="450.909" cy="189.579" fx="450.909" fy="189.579" r="21.167" gradientTransform="matrix(0 -.05372 .09669 0 -14.01 43.722)"><stop offset="0" stop-opacity=".314"/><stop offset=".222" stop-opacity=".275"/><stop offset="1" stop-opacity="0"/></radialGradient><radialGradient id="e" gradientUnits="userSpaceOnUse" cx="450.909" cy="189.579" fx="450.909" fy="189.579" r="21.167" gradientTransform="matrix(0 .05372 -.09669 0 35.84 -5.175)"><stop offset="0" stop-opacity=".314"/><stop offset=".222" stop-opacity=".275"/><stop offset="1" stop-opacity="0"/></radialGradient><linearGradient id="f" gradientUnits="userSpaceOnUse" x1="285.75" y1="233.5" x2="285.75" y2="-168.667" gradientTransform="matrix(.04297 0 0 .04297 0 9.24)"><stop offset="0" stop-color="#bdbdbd"/><stop offset="1" stop-color="#e0e0e0"/></linearGradient><linearGradient id="g" gradientUnits="userSpaceOnUse" x1="254" y1="-147.5" x2="254" y2="212.333" gradientTransform="matrix(.04297 0 0 .04297 0 9.24)"><stop offset="0" stop-color="#eee"/><stop offset="1" stop-color="#f5f5f5"/></linearGradient><linearGradient id="h" gradientUnits="userSpaceOnUse" x1="349.25" y1="-115.75" x2="349.25" y2="191.167"><stop offset="0" stop-color="#424242"/><stop offset="1" stop-color="#616161"/></linearGradient><linearGradient id="i" gradientUnits="userSpaceOnUse" x1="291.042" y1="-115.75" x2="296.333" y2="191.167"><stop offset="0" stop-color="#424242"/><stop offset="1" stop-color="#616161"/></linearGradient></defs><path d="M4.094 19.207h13.644v1.008H4.094zm0 0" fill="url(#a)"/><path d="M17.738 19.273h1.817v-.91h-1.817zm0 0" fill="url(#b)"/><path d="M4.094 19.273h-1.82v.91h1.82zm0 0" fill="url(#c)"/><path d="M4.094 19.273h-1.82v-.91h1.82zm0 0" fill="url(#d)"/><path d="M17.738 19.273h1.817v.91h-1.817zm0 0" fill="url(#e)"/><path d="M3.184 1.992h15.464c.5 0 .907.406.907.91v15.461c0 .504-.407.91-.907.91H3.184a.909.909 0 0 1-.91-.91V2.903c0-.505.406-.91.91-.91zm0 0" fill="url(#f)"/><path d="M3.184 1.992a.909.909 0 0 0-.91.91v.114c0-.504.406-.91.91-.91h15.464c.504 0 .907.406.907.91v-.114a.905.905 0 0 0-.907-.91zm0 0" fill="#e6e6e6" fill-opacity=".392"/><path d="M3.184 19.273a.909.909 0 0 1-.91-.91v-.113c0 .504.406.91.91.91h15.464a.905.905 0 0 0 .907-.91v.113c0 .504-.403.91-.907.91zm0 0" fill-opacity=".196"/><path d="M3.184 1.992h15.464c.5 0 .907.406.907.91v15.461c0 .504-.407.91-.907.91H3.184a.909.909 0 0 1-.91-.91V2.903c0-.505.406-.91.91-.91zm0 0" fill="none" stroke-width=".12891" stroke-linecap="round" stroke="#212121"/><path d="M4.094 2.902h13.644c.5 0 .91.38.91.848v13.762c0 .472-.41.851-.91.851H4.094c-.504 0-.91-.379-.91-.851V3.75c0-.469.406-.848.91-.848zm0 0" fill="url(#g)"/><path d="M317.515-20.473c-28.27 0-53.177 10.272-68.539 26.088-16.18 21.544 5 37.36 39.906 21.725 7.544-3.363 17.543-5.544 28.633-5.544 23.452 0 42.36 9.453 42.36 21.18v29.633c-12.454-5.363-26.907-8.454-42.36-8.454-46.904 0-84.719 28.361-84.719 63.54 0 3.908 0 5.272 1.182 10.544 6.726 30.088 41.45 52.904 83.537 52.904 15.453 0 29.906-3.09 42.36-8.454v8.454h42.268V42.975c0-35.178-37.723-63.448-84.628-63.448zm0 126.988c23.452 0 42.36 9.453 42.36 21.18 0 11.726-18.908 21.18-42.36 21.18-23.452 0-42.36-9.454-42.36-21.18 0-11.727 18.908-21.18 42.36-21.18zm0 0" transform="matrix(.04297 0 0 .04297 0 9.24)" fill="url(#h)" stroke-width="3" stroke="#212121"/><path d="M269.883-105.192l31.725 58.267c5.272 10.544 47.631 10.544 42.36-5.363l-21.18-52.904c-10.545-21.18-63.54-15.817-52.905 0zm0 0" transform="matrix(.04297 0 0 .04297 0 9.24)" fill-rule="evenodd" fill="url(#i)" stroke-width="3" stroke="#212121"/></svg>
